X:1
T:There Shall Be No More Sea
T:Thomas S. Evans
T:There Shall Be No More Sea
T:Public Domain
T:Public Domain
T:Public Domain
T:Public Domain
T:Public Domain
T:Public Domain
C:Thomas S. Evans
Z:Public Domain
%%score ( 1 2 ) 3 ( 4 5 )
L:1/8
M:6/8
K:Ab
V:1 treble 
V:2 treble 
V:3 treble 
V:4 bass 
V:5 bass 
V:1
 [CE]/>[CA]/ | [Ec][=D=B][Ec] [Ec][F_d][Ec] | [Ec][DB][C=A] [DB]2 [DE]/>[DG]/ | %3
w: 1.~There shall|be no more sea in that|land, I am told, Where the|
w: 2.~He shall|tell me the rea- son He|car- ried a- way That sweet|
w: 3.~Oh, I|won- der, some- times, why God|takes from my heart Those dear|
 [DB][C=A][DB] [DB][Ec][Fd] | [Fd][Ec][=D=B] [Ec]2 [CE]/>[CA]/ | [Ec][Ec][Ec] [Ec][Fd][_Ge] | %6
w: walls are of jas- per and|streets are of gold; Yet, as|o’er the wild waves of life’s|
w: an- gel whose smile add- ed|light to the day— The pure|child that went out from the|
w: friends from whose love ’tis heart-|crush- ing to part; But He|speaks through the storm: “Trust and|
 [_Ge][Fd][=Ec] [Fd]2 [Fd]/>[Fd]/ | [Fd][Ec][DB] [CA][DG][DF] | %8
w: con- flict I’m tossed, I still|won- der, some- times, if my|
w: reach of earth’s wrong, Lured a-|way by the mu- sic of|
w: soon you shall see That I’ve|called them to do no- bler|
!>(! E[=DF]"^Andante"[_DG] [CA]2!>)!"^Solo" A/>A/ | AAA AGF | =Ecc c2 c/>c/ | dcB cBA | %12
w: soul shall be lost. But al-|there are mys- ter- ies dark|and un- known, I am sure,|in their midst I shall not|
w: heav- en- ly song. And that|ther, who went from her la-|bor a- way, When her hair,|by the weight of earth’s cross-|
w: ser- vice for Me.” Yes, life|has its con- flicts and mys-|ter- ies deep, And the sor-|rows of life make the heart|
 BAG F2 [FA]/>[FA]/ | [FA][FA][FA] [Fd][Ge][Fd] | [Fd][Ec][=D=B] [Ec]2 [Ec]/>[Ec]/ | %15
w: be a- lone, For that One|who on earth lived a life|with- out stain, Shall be close|
w: es grew gray, I shall find|in that land sweet with flowers|from life’s tree, Tho’ now hid-|
w: oft- en weep; But when all|have rolled by, in that land|I shall be, Where in rap-|
 [Fe][Fd][Fc] [Ff][Fe][Fd] | [Ec][CA][DB] [CA]2 ||"^Refrain" E/>[EA]/ | %18
w: to my side to make ev-|ery- thing plain. *||
w: den from view by death’s cold,|cru- el sea. I|shall stand|
w: tures of joy I shall know|no more sea. *||
 [Ac]>[A=B][Ac] [Ac][Ad][Ac] | [Ac]2 [GB] [GB]2 [GB]/>[Ac]/ | [Gd]>[Gc][Gd] [Ge]2 [Bd] | %21
w: |||
w: the storm but a lit- tle|while, For the Mas- ter|has said to me That|
w: |||
 [Ac]3- [Ac]2 [Ac]/>[Ad]/ | [Ae]>[A=d][Ae] [=Ae][Af][ce] | [ce]2 [Bd] [Ac]2 [FB]/>[FB]/ | %24
w: |||
w: I * soon shall|be tast- ing the plea- sures|sweet Of that land where|
w: |||
 [EA][EG][EA] [Ac]2 [GB] | (A2 F [EA]2) |] %26
w: ||
w: there is no sea. *||
w: ||
V:2
 x | x6 | x6 | x6 | x6 | x6 | x6 | x6 | E x5 | x6 | x6 | x6 | x6 | x6 | x6 | x6 | x5 || E3/4 x/4 | %18
w: ||||||||though||||||||||
w: ||||||||mo-|||||||||in|
w: ||||||||here||||||||||
 x6 | x6 | x6 | x6 | x6 | x6 | x6 | A3- x2 |] %26
w: ||||||||
w: ||||||||
w: ||||||||
V:3
 [CE]/>[CA]/ | z [=B,=D][CE] z [_DF][CE] | z DE (GE)D | z [=A,C][B,D] z [CE][DF] | %4
 z [CE][=B,=D] [CE]2 [CE]/>[CEA]/ | z [CEA][CEA] z [A,DF][A,C_G] | z [A,DF][A,DF] [A,DF]2 z | %7
 [DFd][EAc][DFB] [CEA][DG][DF] | E[=DF][_DEG] [CEA]2 A/>A/ | z [CFA][CFA] z [B,DG][A,CF] | %10
 z [G,C=E][G,CE] [G,CE]2 z | z [CGc][CGB] z [CFB][CFA] | z [B,C=E][B,CE] [A,CF]2 [FA]/>[FA]/ | %13
 z [DF][DF] [DF][EG][DF] | z [CE][=B,=D] [CE]2 z | z [CEF][CEF] z [DF][DFB] | %16
 [CEA]2 [DEG] [CEA]2 || x | x6 | x6 | x6 | x6 | x6 | x6 | x6 | x5 |] %26
V:4
 z | [A,,A,]3 [A,,A,]2 z | [E,,E,]3- [E,,E,]2 z | [E,,E,]2 z [E,,E,]2 z | [A,,A,]2 z [A,,A,]3 | %5
 [A,,A,]3 A,,3 | [D,,D,]3 [D,,D,]2 z | [B,,,B,,][C,,C,][D,,D,] [E,,E,][E,B,][E,A,] | %8
 [E,G,][E,A,][E,B,] [A,,E,A,]2 z | [F,,F,]2 z [F,,F,]3 | [C,,C,]3 [C,,E,,C,]2 z | %11
 [=E,,=E,]3 [F,,F,]3 | G,,2 C, F,,2 z | [D,,D,]3 z3 | [A,,A,]2 z [A,,A,]2 z | =A,,3 B,,2 D, | %16
 E,2 E,, A,,2 || [A,C]/>[A,C]/ | [A,E]>[A,=D][A,E] [A,E][A,F][A,E] | %19
 [E,E]2 [E,D] [E,D]2 [E,D]/>[E,C]/ | [E,B,]>[E,=A,][E,B,] [E,B,]2 [E,E] | %21
 [A,E]3- [A,E]2 A,/>[A,B,]/ | [A,C]>[A,=B,][A,C] [F,C][F,C][=A,F] | %23
 [B,F]2 [B,,F] [C,E]2 [D,D]/>[D,D]/ | [E,C][E,B,][E,C] [E,E]2 [E,D] | (C2 D [G,,A,C]2) |] %26
V:5
 x | x6 | x6 | x6 | x6 | x6 | x6 | x6 | x6 | x6 | x6 | x6 | x6 | x6 | x6 | x6 | x5 || x | x6 | x6 | %20
 x6 | x5 A,3/4 x/4 | x6 | x6 | x6 | [G,,A,]3- x2 |] %26

